X:1
T:Riney, 12.10.12.10
T:Riney, 12.10.12.10
T:Michael Lonneke, 2005
T:Public Domain Courtesy of the Cyber Hymnal™
C:Michael Lonneke, 2005
Z:Public Domain
Z:Courtesy of the Cyber Hymnal™
%%score ( 1 2 ) ( 3 4 )
L:1/8
M:3/4
K:D
V:1 treble 
V:2 treble 
V:3 bass 
V:4 bass 
V:1
 D2 [DE]2 [DF]2 | G4 [CA]2 | [DF]6 | [Fd]2 [Ac]2 [FB]2 | [DA]4 [E^G]2 | [EA]6 | %6
 [A=c]2 [GB]2 [FA]2 | [EG]6 | [DF]6 | (E2 [DF]2) [EG]2 | [EF]4 [CE]2 | D6 | [FA]2 [Fd]2 [Ac]2 | %13
 B4 [GB]2 | [EA]6 | [DA]2 [G=c]2 [FB]2 | [EA]4 [^DA]2 | [B,G]6 | [B,E]2 [B,F]2 [EG]2 | %19
 (A2 G2) [DF]2 | ([B,E]2 [^DF]2) [EG]2 | E4 E2 | [A,D]6 |] %23
V:2
 D2 x4 | (D2 E2) x2 | x6 | x6 | x6 | x6 | x6 | x6 | x6 | E2 x4 | x6 | D6 | x6 | (A2 G2) x2 | x6 | %15
 x6 | x6 | x6 | x6 | E4 x2 | x6 | (D2 B,2) C2 | x6 |] %23
V:3
 [D,F,]2 [D,G,]2 [D,A,]2 | [G,,B,]4 [A,,E]2 | [D,A,]6 | [D,A,]2 [D,E]2 [D,D]2 | (B,2 C2) [E,D]2 | %5
 C6 | [F,D]2 [G,D]2 [D,D]2 | [E,B,]6 | [B,,B,]6 | [E,G,]4 [E,B,]2 | (D2 B,2) [A,,G,]2 | [D,F,]6 | %12
 [D,A,]2 [E,A,]2 [F,D]2 | [G,D]4 [G,,D]2 | [A,,C]4 G,2 | [F,A,]2 [E,=C]2 [D,D]2 | %16
 (=C2 A,2) [B,,B,]2 | [E,G,]6 | [E,G,]2 [D,G,]2 [D,B,]2 | [C,C]4 [D,A,]2 | (G,2 [F,A,]2) [E,B,]2 | %21
 [A,,G,]4 [A,,A,]2 | [D,F,]6 |] %23
V:4
 x6 | x6 | x6 | x6 | E,4 x2 | (A,,2 A,2 G,2) | x6 | x6 | x6 | x6 | A,4 x2 | x6 | x6 | x6 | x4 G,2 | %15
 x6 | F,4 x2 | x6 | x6 | x6 | G,2 x4 | x6 | x6 |] %23

